X:383
T: ES STARBEN DREI GESCHWISTER
N: E0218
O: Europa, Mitteleuropa, Deutschland, Barmen
R: erzaehlendes Volks - Lied, Mahn -, Moral - Lied, Strafe; Geiz
M: 2/4
L: 1/8
K: F
A2 | G2FE | FGA
A | A2GF | G2
FG | A2GA | B2A2 | G2GA | F2
FG | A2GA | B2A2 | G2GA | F2
FG | A2GA | B2A2 | G2GA | F2

@@@ Tune index: 4033
